modules/hawcons-stroke/icons/file-exe.svg

<?xml version="1.0" encoding="UTF-8" standalone="no"?>
<svg width="32px" height="32px" viewBox="0 0 32 32" version="1.1" xmlns="http://www.w3.org/2000/svg" xmlns:xlink="http://www.w3.org/1999/xlink" xmlns:sketch="http://www.bohemiancoding.com/sketch/ns">
    <!-- Generator: Sketch 3.0.3 (7891) - http://www.bohemiancoding.com/sketch -->
    <title>icon 40 file exe</title>
    <desc>Created with Sketch.</desc>
    <defs></defs>
    <g id="Page-1" stroke="none" stroke-width="1" fill="none" fill-rule="evenodd" sketch:type="MSPage">
        <g id="icon-40-file-exe" sketch:type="MSArtboardGroup" fill="#929292">
            <path d="M8.00684834,10 C6.34621185,10 5,11.3422643 5,12.9987856 L5,20.0012144 C5,21.6573979 6.33599155,23 8.00684834,23 L24.9931517,23 C26.6537881,23 28,21.6577357 28,20.0012144 L28,12.9987856 C28,11.3426021 26.6640085,10 24.9931517,10 L8.00684834,10 L8.00684834,10 Z M7.99456145,11 C6.89299558,11 6,11.9001762 6,12.992017 L6,20.007983 C6,21.1081436 6.90234375,22 7.99456145,22 L25.0054385,22 C26.1070044,22 27,21.0998238 27,20.007983 L27,12.992017 C27,11.8918564 26.0976562,11 25.0054385,11 L7.99456145,11 L7.99456145,11 Z M9,17 L9,19 L13,19 L13,20 L9,20 L8,20 L8,13 L9,13 L13,13 L13,14 L9,14 L9,16 L12,16 L12,17 L9,17 L9,17 Z M16,16.5 L14,13 L15,13 L16.5,15.625 L18,13 L19,13 L17,16.5 L19,20 L18,20 L16.5,17.375 L15,20 L14,20 L16,16.5 L16,16.5 Z M21,17 L21,19 L25,19 L25,20 L21,20 L20,20 L20,13 L21,13 L25,13 L25,14 L21,14 L21,16 L24,16 L24,17 L21,17 L21,17 Z" id="file-exe" sketch:type="MSShapeGroup"></path>
        </g>
    </g>
</svg>

<svg width="32" height="32" viewBox="0 0 32 32" xmlns="http://www.w3.org/2000/svg"><path d="M8.007 10A3.003 3.003 0 0 0 5 12.999V20A2.996 2.996 0 0 0 8.007 23h16.986A3.003 3.003 0 0 0 28 20.001V13A2.996 2.996 0 0 0 24.993 10H8.007zm-.012 1C6.893 11 6 11.9 6 12.992v7.016A2 2 0 0 0 7.995 22h17.01C26.107 22 27 21.1 27 20.008v-7.016A2 2 0 0 0 25.005 11H7.995zM9 17v2h4v1H8v-7h5v1H9v2h3v1H9zm7-.5L14 13h1l1.5 2.625L18 13h1l-2 3.5 2 3.5h-1l-1.5-2.625L15 20h-1l2-3.5zm5 .5v2h4v1h-5v-7h5v1h-4v2h3v1h-3z" fill="#929292" fill-rule="evenodd"/></svg>
